svgs/regular/person-circle-xmark.svg

<svg xmlns="http://www.w3.org/2000/svg" viewBox="0 0 576 512"><!--! Font Awesome Pro 6.3.0 by @fontawesome - https://fontawesome.com License - https://fontawesome.com/license (Commercial License) Copyright 2023 Fonticons, Inc. --><path d="M112 48a48 48 0 1 1 96 0 48 48 0 1 1 -96 0zm32 128.1V304h32V176.1c-.7 0-1.5-.1-2.3-.1H146.3c-.8 0-1.5 0-2.3 .1zM144 352V488c0 13.3-10.7 24-24 24s-24-10.7-24-24V223.6L52.9 299.8c-6.5 11.5-21.2 15.6-32.7 9.1s-15.6-21.2-9.1-32.7L69.7 172.7c15.6-27.6 44.9-44.7 76.6-44.7h27.5c31.7 0 61 17.1 76.6 44.7L297 255.1c-11.7 14-21.3 29.9-28.3 47.1c-.6-.8-1.1-1.6-1.6-2.4L224 223.6V488c0 13.3-10.7 24-24 24s-24-10.7-24-24V352H144zM432 224a144 144 0 1 1 0 288 144 144 0 1 1 0-288zm59.3 107.3c6.2-6.2 6.2-16.4 0-22.6s-16.4-6.2-22.6 0L432 345.4l-36.7-36.7c-6.2-6.2-16.4-6.2-22.6 0s-6.2 16.4 0 22.6L409.4 368l-36.7 36.7c-6.2 6.2-6.2 16.4 0 22.6s16.4 6.2 22.6 0L432 390.6l36.7 36.7c6.2 6.2 16.4 6.2 22.6 0s6.2-16.4 0-22.6L454.6 368l36.7-36.7z"/></svg>

<svg xmlns="http://www.w3.org/2000/svg" viewBox="0 0 576 512"><!--! Font Awesome Pro 6.2.0 by @fontawesome - https://fontawesome.com License - https://fontawesome.com/license (Commercial License) Copyright 2022 Fonticons, Inc. --><path d="M208 48C208 74.51 186.5 96 160 96C133.5 96 112 74.51 112 48C112 21.49 133.5 0 160 0C186.5 0 208 21.49 208 48zM144 352V488C144 501.3 133.3 512 120 512C106.7 512 96 501.3 96 488V223.6L52.89 299.8C46.36 311.4 31.72 315.4 20.18 308.9C8.647 302.4 4.585 287.7 11.11 276.2L69.66 172.7C85.27 145.1 114.5 128 146.3 128H173.7C205.5 128 234.7 145.1 250.3 172.7L296.1 255.1C285.2 269.1 275.6 285 268.7 302.3C268.1 301.5 267.6 300.7 267.1 299.8L224 223.6V488C224 501.3 213.3 512 200 512C186.7 512 176 501.3 176 488V352H144zM144 304H176V176.1C175.3 176 174.5 176 173.7 176H146.3C145.5 176 144.7 176 144 176.1V304zM288 368C288 288.5 352.5 224 432 224C511.5 224 576 288.5 576 368C576 447.5 511.5 512 432 512C352.5 512 288 447.5 288 368zM491.3 331.3C497.6 325.1 497.6 314.9 491.3 308.7C485.1 302.4 474.9 302.4 468.7 308.7L432 345.4L395.3 308.7C389.1 302.4 378.9 302.4 372.7 308.7C366.4 314.9 366.4 325.1 372.7 331.3L409.4 368L372.7 404.7C366.4 410.9 366.4 421.1 372.7 427.3C378.9 433.6 389.1 433.6 395.3 427.3L432 390.6L468.7 427.3C474.9 433.6 485.1 433.6 491.3 427.3C497.6 421.1 497.6 410.9 491.3 404.7L454.6 368L491.3 331.3z"/></svg>
